X:986
T:Flower of Scotland
C:Joe Buchanan's Scottish Tome - Page 569.2
I:569 2
Z:Carl Allison
R:Waltz
L:1/4
M:3/4
K:F
A | "F"A2 G | F3 | C3- | C2 C | F2 A | "C7"G3- | G2 G | F2 G |
"F"A3- | A3- | A2 A| "Bb"(B>A) B | "F"c3 | F3- | F z C | "C7"G2 G |
(G F) G | "F"A2 B | A2 G | F3 | C3- | C2 A | "Bb"(B>A) B | "F"c3 |
F3- | F2 A | "Bb"(B A) G | "F"(A>G F) | F3- | F2 F | "Eb"_E2 G | "F"F3- | F2- F :|
